src/16/actions/view-refresh.svg

<svg xmlns="http://www.w3.org/2000/svg" viewBox="0 0 16 16">
  <defs id="defs3051">
    <style type="text/css" id="current-color-scheme">
      .ColorScheme-Text {
        color:#5d656b;
      }
      </style>
  </defs>
 <path style="fill:currentColor;fill-opacity:1;stroke:none" 
       d="M 8 2 C 6.8911827 2 5.8599294 2.3193334 4.96875 2.84375 L 5.53125 3.40625 L 5.71875 3.59375 L 7.65625 5.53125 L 8.375 4.8125 L 6.75 3.1875 C 6.94534 3.1364099 7.1398623 3.0897842 7.34375 3.0625 C 7.3961563 3.0547113 7.4470287 3.0373165 7.5 3.03125 C 7.6680854 3.01418 7.827411 3 8 3 C 10.761424 3 13 5.2385759 13 8 C 13 8.243024 12.97155 8.4855082 12.9375 8.71875 C 12.917545 8.8549993 12.905714 8.9925532 12.875 9.125 C 12.80805 9.4115815 12.708353 9.672624 12.59375 9.9375 C 12.580478 9.9681753 12.576374 10.000899 12.5625 10.03125 C 12.521539 10.122908 12.454245 10.194583 12.40625 10.28125 C 12.401797 10.289291 12.410582 10.304303 12.40625 10.3125 L 13.15625 11.03125 C 13.680667 10.140071 14 9.108818 14 8 C 14 4.6862909 11.313707 2 8 2 z M 2.84375 4.96875 C 2.3193332 5.8599294 2 6.891182 2 8 C 2 11.313709 4.6862934 14 8 14 C 9.1088173 14 10.140071 13.680667 11.03125 13.15625 L 10.46875 12.59375 L 10.28125 12.40625 L 8.34375 10.5 L 7.65625 11.1875 L 9.25 12.8125 C 9.05466 12.86359 8.8601377 12.910216 8.65625 12.9375 C 8.6038437 12.945289 8.5529713 12.962684 8.5 12.96875 C 8.3319146 12.98582 8.172589 13 8 13 C 7.827411 13 7.6680854 12.98582 7.5 12.96875 C 7.3319147 12.95168 7.162744 12.939552 7 12.90625 C 4.7215847 12.440019 3 10.416246 3 8 C 3 7.7517374 3.0275593 7.5198138 3.0625 7.28125 C 3.0824555 7.1450007 3.0942865 7.0074468 3.125 6.875 C 3.1919502 6.5884185 3.2916465 6.327376 3.40625 6.0625 C 3.4192426 6.031782 3.4239145 5.9991506 3.4375 5.96875 C 3.4781185 5.8798895 3.5461122 5.8040145 3.59375 5.71875 L 3.59375 5.6875 L 2.84375 4.96875 z "
     class="ColorScheme-Text"
     />
</svg>

<svg xmlns="http://www.w3.org/2000/svg" viewBox="0 0 16 16"><path d="M8 2a5.96 5.96 0 0 0-3.031.844l.562.562.188.188L7.656 5.53l.719-.718L6.75 3.188c.195-.052.39-.098.594-.126.052-.007.103-.025.156-.03C7.668 3.013 7.827 3 8 3a5 5 0 0 1 5 5c0 .243-.028.486-.063.719-.02.136-.031.274-.062.406a4.737 4.737 0 0 1-.281.813c-.014.03-.018.063-.031.093-.041.092-.109.164-.157.25-.004.008.005.023 0 .031l.75.72A5.96 5.96 0 0 0 14 8a6 6 0 0 0-6-6zM2.844 4.969A5.96 5.96 0 0 0 2 8a6 6 0 0 0 6 6 5.96 5.96 0 0 0 3.031-.844l-.562-.562-.188-.188L8.344 10.5l-.688.688 1.594 1.624c-.195.052-.39.098-.594.126-.052.007-.103.025-.156.03A4.834 4.834 0 0 1 8 13c-.173 0-.332-.014-.5-.031-.168-.017-.337-.03-.5-.063A5.017 5.017 0 0 1 3 8c0-.248.028-.48.063-.719.02-.136.031-.274.062-.406.067-.287.167-.548.281-.813.013-.03.018-.063.031-.093.041-.09.11-.165.157-.25v-.032l-.75-.718z" fill="currentColor" color="#5d656b"/></svg>
